storage/app/icons/phosphoricons/duotone/gif-duotone.svg

<svg xmlns="http://www.w3.org/2000/svg" fill="currentColor" viewBox="0 0 256 256"><path d="M224 56v144a16 16 0 0 1-16 16H48a16 16 0 0 1-16-16V56a16 16 0 0 1 16-16h160a16 16 0 0 1 16 16" opacity=".2"/><path d="M144 72v112a8 8 0 0 1-16 0V72a8 8 0 0 1 16 0m88-8h-56a8 8 0 0 0-8 8v112a8 8 0 0 0 16 0v-48h40a8 8 0 0 0 0-16h-40V80h48a8 8 0 0 0 0-16M96 120H72a8 8 0 0 0 0 16h16v16a24 24 0 0 1-48 0v-48a24 24 0 0 1 24-24c11.19 0 21.61 7.74 24.25 18a8 8 0 0 0 15.5-4C99.27 76.62 82.56 64 64 64a40 40 0 0 0-40 40v48a40 40 0 0 0 80 0v-24a8 8 0 0 0-8-8"/></svg>

<svg xmlns="http://www.w3.org/2000/svg" viewBox="0 0 256 256" fill="currentColor"><path d="M224,56V200a16,16,0,0,1-16,16H48a16,16,0,0,1-16-16V56A16,16,0,0,1,48,40H208A16,16,0,0,1,224,56Z" opacity="0.2"/><path d="M144,72V184a8,8,0,0,1-16,0V72a8,8,0,0,1,16,0Zm88-8H176a8,8,0,0,0-8,8V184a8,8,0,0,0,16,0V136h40a8,8,0,0,0,0-16H184V80h48a8,8,0,0,0,0-16ZM96,120H72a8,8,0,0,0,0,16H88v16a24,24,0,0,1-48,0V104A24,24,0,0,1,64,80c11.19,0,21.61,7.74,24.25,18a8,8,0,0,0,15.5-4C99.27,76.62,82.56,64,64,64a40,40,0,0,0-40,40v48a40,40,0,0,0,80,0V128A8,8,0,0,0,96,120Z"/></svg>
